assets/img/icon_demand.svg

<svg width="43" height="43" viewBox="0 0 43 43" version="1.1" xmlns="http://www.w3.org/2000/svg" xmlns:xlink="http://www.w3.org/1999/xlink">
<title>icon_demand</title>
<desc>Created using Figma</desc>
<g id="Canvas" transform="translate(-5038 -1162)">
<g id="icon_demand">
<g id="Ellipse">
<use xlink:href="#path0_fill" transform="translate(5038 1162)" fill="#FFFFFF"/>
</g>
<g id="001-assembly-line">
<g id="Group">
<g id="Vector">
<use xlink:href="#path1_fill" transform="translate(5046 1174)" fill="#8064FF"/>
</g>
<g id="Vector">
<use xlink:href="#path2_fill" transform="translate(5059.12 1190.7)" fill="#8064FF"/>
</g>
<g id="Vector">
<use xlink:href="#path2_fill" transform="translate(5056.22 1190.7)" fill="#8064FF"/>
</g>
<g id="Vector">
<use xlink:href="#path2_fill" transform="translate(5053.32 1190.7)" fill="#8064FF"/>
</g>
<g id="Vector">
<use xlink:href="#path2_fill" transform="translate(5047.51 1190.7)" fill="#8064FF"/>
</g>
<g id="Vector">
<use xlink:href="#path2_fill" transform="translate(5050.41 1190.7)" fill="#8064FF"/>
</g>
<g id="Vector">
<use xlink:href="#path2_fill" transform="translate(5070.73 1190.7)" fill="#8064FF"/>
</g>
<g id="Vector">
<use xlink:href="#path2_fill" transform="translate(5067.83 1190.7)" fill="#8064FF"/>
</g>
<g id="Vector">
<use xlink:href="#path2_fill" transform="translate(5062.03 1190.7)" fill="#8064FF"/>
</g>
<g id="Vector">
<use xlink:href="#path2_fill" transform="translate(5064.93 1190.7)" fill="#8064FF"/>
</g>
</g>
</g>
</g>
</g>
<defs>
<path id="path0_fill" d="M 43 21.5C 43 33.3741 33.3741 43 21.5 43C 9.62588 43 0 33.3741 0 21.5C 0 9.62588 9.62588 0 21.5 0C 33.3741 0 43 9.62588 43 21.5Z"/>
<path id="path1_fill" d="M 25.6112 15.1682L 25.581 15.1682L 25.581 13.6697C 25.581 13.4163 25.3779 13.211 25.1274 13.211L 24.6134 13.211L 24.6134 9.88404C 24.6134 9.02844 24.0452 8.26667 23.2317 8.0315L 21.7106 7.59199L 21.7106 6.88673C 22.0162 6.61578 22.1944 6.22428 22.1944 5.80661L 22.1944 4.34251L 22.7084 4.34251C 22.9589 4.34251 23.162 4.13719 23.162 3.88379C 23.162 3.6304 22.9589 3.42508 22.7084 3.42508L 22.6782 3.42508L 22.6782 3.3945C 22.6782 1.94869 21.6283 0.746483 20.2592 0.525872L 20.2592 0.458716C 20.2592 0.205321 20.0561 0 19.8056 0C 19.5551 0 19.3521 0.205321 19.3521 0.458716L 19.3521 0.525872C 17.9829 0.746483 16.933 1.94869 16.933 3.3945L 16.933 3.42508L 16.9028 3.42508C 16.6523 3.42508 16.4492 3.6304 16.4492 3.88379C 16.4492 4.13719 16.6523 4.34251 16.9028 4.34251L 17.4168 4.34251L 17.4168 5.80654C 17.4168 6.22422 17.5949 6.61572 17.9006 6.88661L 17.9006 7.59193L 16.3794 8.0315C 15.566 8.26661 14.9978 9.02838 14.9978 9.88404L 14.9978 15.1682L 14.4536 15.1682L 14.4536 12.6911C 14.4536 12.4377 14.2505 12.2324 14 12.2324L 13.0022 12.2324L 13.0022 9.88404C 13.0022 9.02844 12.434 8.26667 11.6205 8.0315L 10.0994 7.59199L 10.0994 6.88673C 10.405 6.61578 10.5832 6.22428 10.5832 5.80661L 10.5832 4.34251L 11.0972 4.34251C 11.3477 4.34251 11.5508 4.13719 11.5508 3.88379C 11.5508 3.6304 11.3477 3.42508 11.0972 3.42508L 11.067 3.42508L 11.067 3.3945C 11.067 1.94869 10.0171 0.746483 8.64795 0.525872L 8.64795 0.458716C 8.64795 0.205321 8.44487 0 8.19438 0C 7.9439 0 7.74082 0.205321 7.74082 0.458716L 7.74082 0.525872C 6.37166 0.746483 5.32181 1.94869 5.32181 3.3945L 5.32181 3.42508L 5.29158 3.42508C 5.04109 3.42508 4.83801 3.6304 4.83801 3.88379C 4.83801 4.13719 5.04109 4.34251 5.29158 4.34251L 5.80562 4.34251L 5.80562 5.80654C 5.80562 6.22422 5.98372 6.61572 6.28942 6.88661L 6.28942 7.59193L 4.76816 8.0315C 3.95477 8.26661 3.38661 9.02838 3.38661 9.88404L 3.38661 15.1682L 2.38877 15.1682C 1.07162 15.1682 0 16.252 0 17.5841C 0 18.9162 1.07162 20 2.38877 20L 25.6112 20C 26.9284 20 28 18.9162 28 17.5841C 28 16.252 26.9284 15.1682 25.6112 15.1682ZM 24.6739 15.1682L 19.7754 15.1682L 19.7754 14.1284L 24.6739 14.1284L 24.6739 15.1682ZM 17.8402 15.1682L 17.8402 10.7339C 17.8402 10.7171 17.8537 10.7034 17.8704 10.7034L 21.7408 10.7034C 21.7575 10.7034 21.7711 10.7171 21.7711 10.7339L 21.7711 13.211L 19.3218 13.211C 19.0713 13.211 18.8682 13.4163 18.8682 13.6697L 18.8682 15.1682L 17.8402 15.1682ZM 18.8266 7.5263C 19.0609 7.68416 19.3334 7.76758 19.6149 7.76758L 19.9967 7.76758C 20.2781 7.76758 20.5507 7.6841 20.7851 7.52618L 20.8036 7.5137L 20.8036 7.93908C 20.8036 7.94349 20.8035 7.94795 20.8036 7.95229L 20.8036 8.07358C 20.7175 8.15242 20.3825 8.31804 19.8057 8.31804C 19.2289 8.31804 18.894 8.15242 18.8079 8.07358L 18.8079 7.51358L 18.8266 7.5263ZM 18.324 9.78593L 18.324 8.85535C 18.6619 9.09376 19.1812 9.23547 19.8056 9.23547C 20.43 9.23547 20.9493 9.09376 21.2873 8.85535L 21.2873 9.78593L 18.324 9.78593ZM 23.7063 9.88404L 23.7063 13.211L 22.6782 13.211L 22.6782 10.7339C 22.6782 10.3776 22.4825 10.0668 22.1944 9.90489L 22.1944 8.68587L 22.9826 8.91358C 23.4087 9.03676 23.7063 9.43578 23.7063 9.88404ZM 21.7711 3.3945L 21.7711 3.42508L 21.7408 3.42508L 20.2592 3.42508L 20.2592 1.46073C 21.1249 1.66844 21.7711 2.45633 21.7711 3.3945ZM 17.8402 3.3945C 17.8402 2.45633 18.4863 1.66844 19.3521 1.46073L 19.3521 3.42508L 17.8704 3.42508L 17.8402 3.42508L 17.8402 3.3945ZM 21.2873 4.34251L 21.2873 5.80661C 21.2873 5.9808 21.2017 6.14251 21.0584 6.23914L 20.2818 6.76281C 20.197 6.82 20.0984 6.85021 19.9966 6.85021L 19.6149 6.85021C 19.513 6.85021 19.4145 6.82006 19.3297 6.76294L 18.5529 6.2392C 18.4095 6.14257 18.3239 5.9808 18.3239 5.80661L 18.3239 4.34251L 21.2873 4.34251ZM 15.905 9.88404C 15.905 9.43584 16.2026 9.03676 16.6287 8.91364L 17.4168 8.68581L 17.4168 9.90489C 17.1287 10.0668 16.933 10.3776 16.933 10.7339L 16.933 15.1682L 15.905 15.1682L 15.905 9.88404ZM 13.5464 15.1682L 8.64795 15.1682L 8.64795 13.1498L 13.5464 13.1498L 13.5464 15.1682ZM 6.22894 15.1682L 6.22894 10.7339C 6.22894 10.7171 6.24249 10.7034 6.25918 10.7034L 10.1296 10.7034C 10.1463 10.7034 10.1598 10.7171 10.1598 10.7339L 10.1598 12.2324L 8.19438 12.2324C 7.9439 12.2324 7.74082 12.4377 7.74082 12.6911L 7.74082 15.1682L 6.22894 15.1682ZM 7.21541 7.5263C 7.44963 7.68416 7.72219 7.76758 8.00371 7.76758L 8.38543 7.76758C 8.66688 7.76758 8.9395 7.6841 9.17384 7.52618L 9.19235 7.5137L 9.19235 7.93908C 9.19235 7.94349 9.19222 7.94795 9.19235 7.95229L 9.19235 8.07358C 9.10623 8.15242 8.77132 8.31804 8.19451 8.31804C 7.61769 8.31804 7.28278 8.15242 7.19667 8.07358L 7.19667 7.51358L 7.21541 7.5263ZM 6.71274 9.78593L 6.71274 8.85535C 7.05068 9.09376 7.56998 9.23547 8.19438 9.23547C 8.81879 9.23547 9.33809 9.09376 9.67603 8.85535L 9.67603 9.78593L 6.71274 9.78593ZM 12.095 9.88404L 12.095 12.2324L 11.067 12.2324L 11.067 10.7339C 11.067 10.3776 10.8713 10.0668 10.5832 9.90489L 10.5832 8.68587L 11.3713 8.91358C 11.7974 9.03676 12.095 9.43578 12.095 9.88404ZM 10.1598 3.3945L 10.1598 3.42508L 10.1296 3.42508L 8.64795 3.42508L 8.64795 1.46073C 9.51365 1.66844 10.1598 2.45633 10.1598 3.3945ZM 6.22894 3.3945C 6.22894 2.45633 6.87512 1.66844 7.74082 1.46073L 7.74082 3.42508L 6.25918 3.42508L 6.22894 3.42508L 6.22894 3.3945ZM 9.67603 4.34251L 9.67603 5.80661C 9.67603 5.9808 9.59045 6.14251 9.44713 6.23914L 8.67057 6.76281C 8.58578 6.82 8.48715 6.85021 8.38537 6.85021L 8.00364 6.85021C 7.90181 6.85021 7.80323 6.82006 7.71851 6.76294L 6.94164 6.2392C 6.79825 6.14257 6.71268 5.9808 6.71268 5.80661L 6.71268 4.34251L 9.67603 4.34251ZM 4.29374 9.88404C 4.29374 9.43584 4.59133 9.03676 5.01744 8.91364L 5.80562 8.68581L 5.80562 9.90489C 5.51745 10.0668 5.32181 10.3776 5.32181 10.7339L 5.32181 15.1682L 4.29374 15.1682L 4.29374 9.88404ZM 25.6112 19.0826L 2.38877 19.0826C 1.57181 19.0826 0.907127 18.4104 0.907127 17.5841C 0.907127 16.7578 1.57181 16.0856 2.38877 16.0856L 25.6112 16.0856C 26.4282 16.0856 27.0929 16.7578 27.0929 17.5841C 27.0929 18.4104 26.4282 19.0826 25.6112 19.0826Z"/>
<path id="path2_fill" d="M 0.87689 0C 0.393391 0 0 0.397859 0 0.88685C 0 1.37584 0.393391 1.7737 0.87689 1.7737C 1.36039 1.7737 1.75378 1.37584 1.75378 0.88685C 1.75378 0.397859 1.36039 0 0.87689 0Z"/>
</defs>
</svg>

<svg width="43" height="43" xmlns="http://www.w3.org/2000/svg" xmlns:xlink="http://www.w3.org/1999/xlink"><use xlink:href="#path0_fill" fill="#FFF"/><use xlink:href="#path1_fill" transform="translate(8 12)" fill="#8064FF"/><use xlink:href="#path2_fill" transform="translate(21.12 28.7)" fill="#8064FF"/><use xlink:href="#path2_fill" transform="translate(18.22 28.7)" fill="#8064FF"/><use xlink:href="#path2_fill" transform="translate(15.32 28.7)" fill="#8064FF"/><use xlink:href="#path2_fill" transform="translate(9.51 28.7)" fill="#8064FF"/><use xlink:href="#path2_fill" transform="translate(12.41 28.7)" fill="#8064FF"/><use xlink:href="#path2_fill" transform="translate(32.73 28.7)" fill="#8064FF"/><use xlink:href="#path2_fill" transform="translate(29.83 28.7)" fill="#8064FF"/><use xlink:href="#path2_fill" transform="translate(24.03 28.7)" fill="#8064FF"/><use xlink:href="#path2_fill" transform="translate(26.93 28.7)" fill="#8064FF"/><defs><path id="path0_fill" d="M43 21.5C43 33.374 33.374 43 21.5 43S0 33.374 0 21.5 9.626 0 21.5 0 43 9.626 43 21.5z"/><path id="path1_fill" d="M25.611 15.168h-.03V13.67a.456.456 0 0 0-.454-.459h-.514V9.884c0-.856-.568-1.617-1.381-1.853l-1.521-.439v-.705c.305-.271.483-.663.483-1.08V4.343h.514c.25 0 .454-.206.454-.46a.456.456 0 0 0-.454-.458h-.03v-.03A2.9 2.9 0 0 0 20.26.524V.46a.456.456 0 0 0-.454-.46.456.456 0 0 0-.454.459v.067a2.9 2.9 0 0 0-2.419 2.868v.031h-.03a.456.456 0 0 0-.454.459c0 .253.203.459.454.459h.514v1.464c0 .417.178.809.484 1.08v.705l-1.522.44a1.932 1.932 0 0 0-1.381 1.852v5.284h-.544v-2.477a.456.456 0 0 0-.454-.459h-.998V9.884c0-.856-.568-1.617-1.382-1.853l-1.52-.439v-.705c.305-.271.483-.663.483-1.08V4.343h.514c.25 0 .454-.206.454-.46a.456.456 0 0 0-.454-.458h-.03v-.03a2.9 2.9 0 0 0-2.42-2.87V.46A.456.456 0 0 0 8.195 0a.456.456 0 0 0-.453.459v.067a2.9 2.9 0 0 0-2.42 2.868v.031h-.03a.456.456 0 0 0-.453.459c0 .253.203.459.454.459h.514v1.464c0 .417.178.809.483 1.08v.705l-1.52.44a1.932 1.932 0 0 0-1.382 1.852v5.284H2.39c-1.318 0-2.39 1.084-2.39 2.416C0 18.916 1.072 20 2.389 20H25.61c1.318 0 2.39-1.084 2.39-2.416 0-1.332-1.072-2.416-2.389-2.416zm-.937 0h-4.899v-1.04h4.899v1.04zm-6.834 0v-4.434a.03.03 0 0 1 .03-.03h3.87a.03.03 0 0 1 .031.03v2.477h-2.45a.456.456 0 0 0-.453.459v1.498H17.84zm.987-7.642c.234.158.506.242.788.242h.382c.281 0 .554-.084.788-.242l.019-.012v.56c-.086.078-.421.244-.998.244s-.912-.166-.998-.244v-.56l.019.012zm-.503 2.26v-.93c.338.238.857.38 1.482.38.624 0 1.143-.142 1.481-.38v.93h-2.963zm5.382.098v3.327h-1.028v-2.477a.95.95 0 0 0-.484-.83V8.687l.789.228c.426.123.723.522.723.97zm-1.935-6.49v.031H20.26V1.461a1.986 1.986 0 0 1 1.512 1.933zm-3.93 0c0-.938.645-1.726 1.511-1.933v1.964H17.84v-.03zm3.446.949v1.464a.52.52 0 0 1-.229.432l-.776.524a.508.508 0 0 1-.285.087h-.382c-.102 0-.2-.03-.285-.087l-.777-.524a.52.52 0 0 1-.23-.432V4.343h2.964zm-5.382 5.541c0-.448.298-.847.724-.97l.788-.228v1.219a.95.95 0 0 0-.484.829v4.434h-1.028V9.884zm-2.359 5.284H8.648V13.15h4.898v2.018zm-7.317 0v-4.434a.03.03 0 0 1 .03-.03h3.87a.03.03 0 0 1 .03.03v1.498H8.195a.456.456 0 0 0-.453.46v2.476H6.229zm.986-7.642c.235.158.507.242.789.242h.381c.282 0 .555-.084.789-.242l.018-.012v.56c-.086.078-.42.244-.997.244s-.912-.166-.998-.244v-.56l.018.012zm-.502 2.26v-.93c.338.238.857.38 1.481.38.625 0 1.144-.142 1.482-.38v.93H6.713zm5.382.098v2.348h-1.028v-1.498a.95.95 0 0 0-.484-.83V8.687l.788.228c.426.123.724.522.724.97zm-1.935-6.49v.031H8.648V1.461a1.986 1.986 0 0 1 1.512 1.933zm-3.931 0c0-.938.646-1.726 1.512-1.933v1.964H6.229v-.03zm3.447.949v1.464a.52.52 0 0 1-.229.432l-.776.524a.508.508 0 0 1-.286.087h-.381c-.102 0-.2-.03-.285-.087l-.777-.524a.52.52 0 0 1-.23-.432V4.343h2.964zM4.294 9.884c0-.448.297-.847.723-.97l.789-.228v1.219a.95.95 0 0 0-.484.829v4.434H4.294V9.884zm21.317 9.199H2.39a1.492 1.492 0 0 1-1.482-1.499c0-.826.665-1.498 1.482-1.498h23.22c.817 0 1.482.672 1.482 1.498s-.665 1.499-1.482 1.499z"/><path id="path2_fill" d="M.877 0A.883.883 0 0 0 0 .887c0 .489.393.887.877.887a.883.883 0 0 0 .877-.887A.883.883 0 0 0 .877 0z"/></defs></svg>
